X: 456
T: Mad Moll
P: Longways for as many as will
%R: slip-jig, triple hornpipe
B: "The Compleat Country Dancing-Master" printed by John Walsh, London ca. 1740
S: 6: CCDM1 http://imslp.org/wiki/The_Compleat_Country_Dancing-Master_(Various) V.1 p.112 #160 (224)
B: "The Dancing-Master: Containing Directions and Tunes for Dancing" printed by W. Pearson for John Walsh, London ca. 1709
S: 7: DMDfD http://digital.nls.uk/special-collections-of-printed-music/pageturner.cfm?id=89751228 p.234
Z: 2013 John Chambers <jc:trillian.mit.edu>
M: 9/4
L: 1/4
K: Am
% - - - - - - - - - - - - - - - - - - - - - - - - -
A | c>de (cA)A (cA)A | c>de (cA)A B2G | c>de (cA)A (cA)A | B>cd d>ed B2G |]
 [| c>de (ge)e (ge)e | c>de (ge)e f2d | c>de (ge)e (ge)e | B>cd d>ed B2G |]
% - - - - - - - - - - - - - - - - - - - - - - - - -
%%begintext align
%% The 1st Cu. take Hands and draw into the 2d Cu. Place, the 2d Cu. at
%% the same Time Hands to the 1st Cu. Place; then each Cu. Back to
%% Back with their Partners .| The 2d Cu. do the same, which brings
%% the 1st and 2d Cu. as they begun .| All four right Hands across
%% half round, then left Hands across back again to the same .| Then the
%% 1st Cu. cross over above the 2d Cu. to the 2d Cu. Place, then go the
%% whole Figure, which brings the 1st Cu. to the 2d proper.
%% [CCDM1]
%%endtext
%%sep 1 1 500
%%begintext align
%% The 1. cu. take hands and draw into the 2. cu. place, the 2. cu. at the same time hands to the 1. cu.
%% place; then each cu. back to back with their Partners :| The 2. cu. does the same, which brings 1. and
%% 2. cu. as they began :| All four right-hands a-cross half round, then left-hands a-cross back again to the
%% same :| Then the 1. cu. cross over above the 2. cu. to the 2. cu. place, then go the whole Figure of
%% Eight, which brings the 1. cu. to the 2. proper.
%% [DMDfD]
%%endtext
%%sep 1 8 500

%%sep 1 1 500
%%sep 1 1 500
